icons/podcastguru.svg

<svg width="32" height="32" viewBox="0 0 32 32" fill="none" xmlns="http://www.w3.org/2000/svg">
<g clip-path="url(#clip0_29_398)">
<path d="M3.36667 28.6333C0.913333 26.18 0 22.18 0 16C0 9.82 0.913333 5.82 3.36667 3.36667C5.82 0.913333 9.82 0 16 0C22.18 0 26.18 0.913333 28.6333 3.36667C31.0867 5.82 32 9.82 32 16C32 22.18 31.0867 26.18 28.6333 28.6333C26.18 31.0867 22.18 32 16 32C9.82 32 5.82 31.0867 3.36667 28.6333Z" fill="white"/>
<path fill-rule="evenodd" clip-rule="evenodd" d="M6.31748 25.5616C4.20454 19.6472 8.34776 15.9395 8.34776 15.9395H15.9396V23.5314C15.9396 23.5314 12.8499 26.974 6.31748 25.5616Z" fill="#1CC1EA" fill-opacity="0.44"/>
<path fill-rule="evenodd" clip-rule="evenodd" d="M25.5617 25.5616C19.6472 27.6746 15.9395 23.5314 15.9395 23.5314V15.9395H23.5314C23.5314 15.9395 26.9741 19.0292 25.5617 25.5616Z" fill="#E0E900" fill-opacity="0.44"/>
<path fill-rule="evenodd" clip-rule="evenodd" d="M25.5617 6.31751C27.6746 12.2321 23.5314 15.9396 23.5314 15.9396H15.9395V8.34779C15.9395 8.34779 19.0292 4.90512 25.5617 6.31751Z" fill="#EB1212" fill-opacity="0.44"/>
<path fill-rule="evenodd" clip-rule="evenodd" d="M6.31748 6.31751C12.232 4.20457 15.9396 8.34779 15.9396 8.34779V15.9396H8.34776C8.34776 15.9396 4.90509 12.85 6.31748 6.31751Z" fill="#9C27B0" fill-opacity="0.44"/>
<path fill-rule="evenodd" clip-rule="evenodd" d="M2.33191 15.9396C5.01989 10.2632 10.5714 10.5714 10.5714 10.5714L15.9396 15.9396L10.5714 21.3078C10.5714 21.3078 5.95223 21.5574 2.33191 15.9396Z" fill="#1549E3" fill-opacity="0.44"/>
<path fill-rule="evenodd" clip-rule="evenodd" d="M15.9396 29.5473C10.2632 26.8592 10.5714 21.3078 10.5714 21.3078L15.9396 15.9396L21.3078 21.3078C21.3078 21.3078 21.5574 25.927 15.9396 29.5473Z" fill="#1ADC4A" fill-opacity="0.44"/>
<path fill-rule="evenodd" clip-rule="evenodd" d="M29.5473 15.9396C26.8593 21.6158 21.3078 21.3078 21.3078 21.3078L15.9396 15.9396L21.3078 10.5714C21.3078 10.5714 25.9269 10.3218 29.5473 15.9396Z" fill="#F8A007" fill-opacity="0.44"/>
<path fill-rule="evenodd" clip-rule="evenodd" d="M15.9396 2.33191C21.6158 5.01989 21.3078 10.5714 21.3078 10.5714L15.9396 15.9396L10.5714 10.5714C10.5714 10.5714 10.3218 5.95223 15.9396 2.33191Z" fill="#CF186E" fill-opacity="0.44"/>
<mask id="mask0_29_398" style="mask-type:alpha" maskUnits="userSpaceOnUse" x="2" y="2" width="28" height="28">
<path fill-rule="evenodd" clip-rule="evenodd" d="M25.6672 20.1839C25.9644 21.6062 26.0302 23.3944 25.5616 25.5617C23.2942 26.3717 21.3511 26.2622 19.8169 25.8193C19.0214 27.0351 17.8034 28.3462 15.9396 29.5473C13.7634 28.5167 12.4668 27.0653 11.6952 25.6673C10.273 25.9644 8.48471 26.0302 6.31748 25.5617C5.50743 23.2942 5.61689 21.3511 6.05989 19.8169C4.84406 19.0214 3.53301 17.8034 2.33191 15.9396C3.36242 13.7634 4.8138 12.4668 6.21188 11.6952C5.9147 10.273 5.8489 8.48471 6.31748 6.31749C8.58497 5.50745 10.5281 5.61691 12.0623 6.05989C12.8578 4.84406 14.0758 3.53302 15.9396 2.33191C18.1157 3.36242 19.4123 4.81381 20.1839 6.2119C21.6061 5.91472 23.3944 5.84892 25.5616 6.31749C26.3717 8.58496 26.2622 10.5281 25.8193 12.0622C27.0351 12.8578 28.3462 14.0758 29.5473 15.9396C28.5167 18.1157 27.0653 19.4123 25.6672 20.1839Z" fill="white"/>
</mask>
<g mask="url(#mask0_29_398)">
<g filter="url(#filter0_d_29_398)">
<path d="M20.3828 14.5082C20.6344 14.5082 20.8383 14.7121 20.8383 14.9637V16.462C20.8383 19.0112 18.8891 21.1052 16.3999 21.3348L16.397 23.9238C16.3968 24.1754 16.1925 24.3792 15.9408 24.379C15.6891 24.3787 15.4853 24.1744 15.4856 23.9228L15.4884 21.3347C12.9996 21.1046 11.0509 19.0109 11.0509 16.462V14.9637C11.0509 14.7121 11.2548 14.5082 11.5064 14.5082C11.758 14.5082 11.9619 14.7121 11.9619 14.9637V16.462C11.9619 18.6616 13.745 20.4447 15.9446 20.4447L15.9355 20.4446L15.9451 20.4445C15.9476 20.4445 15.9502 20.4445 15.9527 20.4446C18.1486 20.4403 19.9273 18.6589 19.9273 16.462V14.9637C19.9273 14.7121 20.1312 14.5082 20.3828 14.5082ZM18.7772 14.0136V16.4265C18.7772 17.9928 17.5076 19.2625 15.9414 19.2625C14.3751 19.2625 13.1054 17.9928 13.1054 16.4265V14.0136H18.7772ZM15.9413 7.84497C17.5076 7.84497 18.7773 9.11464 18.7773 10.681V13.0938H13.1054V10.681C13.1054 9.11464 14.3751 7.84497 15.9413 7.84497Z" fill="black"/>
</g>
<path d="M20.3828 14.5082C20.6344 14.5082 20.8383 14.7121 20.8383 14.9637V16.462C20.8383 19.0112 18.8891 21.1052 16.3999 21.3348L16.397 23.9238C16.3968 24.1754 16.1925 24.3792 15.9408 24.379C15.6891 24.3787 15.4853 24.1744 15.4856 23.9228L15.4884 21.3347C12.9996 21.1046 11.0509 19.0109 11.0509 16.462V14.9637C11.0509 14.7121 11.2548 14.5082 11.5064 14.5082C11.758 14.5082 11.9619 14.7121 11.9619 14.9637V16.462C11.9619 18.6616 13.745 20.4447 15.9446 20.4447L15.9355 20.4446L15.9451 20.4445C15.9476 20.4445 15.9502 20.4445 15.9527 20.4446C18.1486 20.4403 19.9273 18.6589 19.9273 16.462V14.9637C19.9273 14.7121 20.1312 14.5082 20.3828 14.5082ZM18.7772 14.0136V16.4265C18.7772 17.9928 17.5076 19.2625 15.9414 19.2625C14.3751 19.2625 13.1054 17.9928 13.1054 16.4265V14.0136H18.7772ZM15.9413 7.84497C17.5076 7.84497 18.7773 9.11464 18.7773 10.681V13.0938H13.1054V10.681C13.1054 9.11464 14.3751 7.84497 15.9413 7.84497Z" fill="white"/>
</g>
</g>
<defs>
<filter id="filter0_d_29_398" x="-18.9491" y="-2.15503" width="69.7874" height="76.534" filterUnits="userSpaceOnUse" color-interpolation-filters="sRGB">
<feFlood flood-opacity="0" result="BackgroundImageFix"/>
<feColorMatrix in="SourceAlpha" type="matrix" values="0 0 0 0 0 0 0 0 0 0 0 0 0 0 0 0 0 0 127 0" result="hardAlpha"/>
<feOffset dy="20"/>
<feGaussianBlur stdDeviation="15"/>
<feColorMatrix type="matrix" values="0 0 0 0 0 0 0 0 0 0 0 0 0 0 0 0 0 0 0.453726 0"/>
<feBlend mode="normal" in2="BackgroundImageFix" result="effect1_dropShadow_29_398"/>
<feBlend mode="normal" in="SourceGraphic" in2="effect1_dropShadow_29_398" result="shape"/>
</filter>
<clipPath id="clip0_29_398">
<rect width="32" height="32" fill="white"/>
</clipPath>
</defs>
</svg>

<svg xmlns="http://www.w3.org/2000/svg" width="32" height="32" fill="none" viewBox="0 0 32 32">
  <g clip-path="url(#a)">
    <path fill="#fff" d="M3.367 28.633C.913 26.18 0 22.18 0 16 0 9.82.913 5.82 3.367 3.367 5.82.913 9.82 0 16 0c6.18 0 10.18.913 12.633 3.367C31.087 5.82 32 9.82 32 16c0 6.18-.913 10.18-3.367 12.633C26.18 31.087 22.18 32 16 32c-6.18 0-10.18-.913-12.633-3.367Z"/>
    <path fill="#1CC1EA" fill-opacity=".44" fill-rule="evenodd" d="M6.318 25.562c-2.113-5.915 2.03-9.622 2.03-9.622h7.592v7.591s-3.09 3.443-9.622 2.03Z" clip-rule="evenodd"/>
    <path fill="#E0E900" fill-opacity=".44" fill-rule="evenodd" d="M25.562 25.562c-5.915 2.113-9.622-2.03-9.622-2.03V15.94h7.591s3.443 3.09 2.03 9.622Z" clip-rule="evenodd"/>
    <path fill="#EB1212" fill-opacity=".44" fill-rule="evenodd" d="M25.562 6.317c2.113 5.915-2.03 9.623-2.03 9.623H15.94V8.348s3.09-3.443 9.622-2.03Z" clip-rule="evenodd"/>
    <path fill="#9C27B0" fill-opacity=".44" fill-rule="evenodd" d="M6.317 6.318c5.915-2.113 9.623 2.03 9.623 2.03v7.592H8.348s-3.443-3.09-2.03-9.622Z" clip-rule="evenodd"/>
    <path fill="#1549E3" fill-opacity=".44" fill-rule="evenodd" d="M2.332 15.94c2.688-5.677 8.24-5.369 8.24-5.369l5.368 5.369-5.369 5.368s-4.619.25-8.24-5.368Z" clip-rule="evenodd"/>
    <path fill="#1ADC4A" fill-opacity=".44" fill-rule="evenodd" d="M15.94 29.547c-5.677-2.688-5.369-8.24-5.369-8.24l5.369-5.367 5.368 5.368s.25 4.619-5.368 8.24Z" clip-rule="evenodd"/>
    <path fill="#F8A007" fill-opacity=".44" fill-rule="evenodd" d="M29.547 15.94c-2.688 5.676-8.24 5.368-8.24 5.368L15.94 15.94l5.368-5.369s4.619-.25 8.24 5.369Z" clip-rule="evenodd"/>
    <path fill="#CF186E" fill-opacity=".44" fill-rule="evenodd" d="M15.94 2.332c5.676 2.688 5.368 8.24 5.368 8.24L15.94 15.94l-5.37-5.37s-.25-4.619 5.369-8.24Z" clip-rule="evenodd"/>
    <mask id="b" width="28" height="28" x="2" y="2" maskUnits="userSpaceOnUse" style="mask-type:alpha">
      <path fill="#fff" fill-rule="evenodd" d="M25.667 20.184c.297 1.422.363 3.21-.105 5.378-2.268.81-4.21.7-5.745.257-.796 1.216-2.014 2.527-3.877 3.728-2.177-1.03-3.473-2.482-4.245-3.88-1.422.297-3.21.363-5.378-.105-.81-2.268-.7-4.21-.257-5.745-1.216-.796-2.527-2.014-3.728-3.877 1.03-2.177 2.482-3.473 3.88-4.245-.297-1.422-.363-3.21.105-5.378 2.268-.81 4.211-.7 5.745-.257.796-1.216 2.014-2.527 3.878-3.728 2.176 1.03 3.472 2.482 4.244 3.88 1.422-.297 3.21-.363 5.378.105.81 2.268.7 4.211.257 5.745 1.216.796 2.527 2.014 3.728 3.878-1.03 2.176-2.482 3.472-3.88 4.244Z" clip-rule="evenodd"/>
    </mask>
    <g mask="url(#b)">
      <g filter="url(#c)">
        <path fill="#000" d="M20.383 14.508c.251 0 .455.204.455.456v1.498a4.894 4.894 0 0 1-4.438 4.873l-.003 2.589a.456.456 0 0 1-.911-.001l.002-2.588a4.894 4.894 0 0 1-4.437-4.873v-1.498a.455.455 0 1 1 .91 0v1.498c0 2.2 1.784 3.983 3.984 3.983h-.01.019a3.983 3.983 0 0 0 3.974-3.983v-1.498c0-.252.204-.456.456-.456Zm-1.606-.494v2.413a2.836 2.836 0 1 1-5.672 0v-2.413h5.672Zm-2.836-6.169a2.836 2.836 0 0 1 2.836 2.836v2.413h-5.672V10.68a2.836 2.836 0 0 1 2.836-2.836Z"/>
      </g>
      <path fill="#fff" d="M20.383 14.508c.251 0 .455.204.455.456v1.498a4.894 4.894 0 0 1-4.438 4.873l-.003 2.589a.456.456 0 0 1-.911-.001l.002-2.588a4.894 4.894 0 0 1-4.437-4.873v-1.498a.455.455 0 1 1 .91 0v1.498c0 2.2 1.784 3.983 3.984 3.983h-.01.019a3.983 3.983 0 0 0 3.974-3.983v-1.498c0-.252.204-.456.456-.456Zm-1.606-.494v2.413a2.836 2.836 0 1 1-5.672 0v-2.413h5.672Zm-2.836-6.169a2.836 2.836 0 0 1 2.836 2.836v2.413h-5.672V10.68a2.836 2.836 0 0 1 2.836-2.836Z"/>
    </g>
  </g>
  <defs>
    <clipPath id="a">
      <path fill="#fff" d="M0 0h32v32H0z"/>
    </clipPath>
    <filter id="c" width="69.787" height="76.534" x="-18.949" y="-2.155" color-interpolation-filters="sRGB" filterUnits="userSpaceOnUse">
      <feFlood flood-opacity="0" result="BackgroundImageFix"/>
      <feColorMatrix in="SourceAlpha" result="hardAlpha" values="0 0 0 0 0 0 0 0 0 0 0 0 0 0 0 0 0 0 127 0"/>
      <feOffset dy="20"/>
      <feGaussianBlur stdDeviation="15"/>
      <feColorMatrix values="0 0 0 0 0 0 0 0 0 0 0 0 0 0 0 0 0 0 0.453726 0"/>
      <feBlend in2="BackgroundImageFix" result="effect1_dropShadow_29_398"/>
      <feBlend in="SourceGraphic" in2="effect1_dropShadow_29_398" result="shape"/>
    </filter>
  </defs>
</svg>
